img/popup/05.svg

<svg width="28" height="13" viewBox="0 0 28 13" fill="none" xmlns="http://www.w3.org/2000/svg">
<path d="M19.1365 0L0 5.18124L0.302554 6.42927L7.03438 12.8585L27.6459 3.9332L27.7971 2.83644L19.1365 0Z" fill="black"/>
<path d="M0 5.21904L0.907662 5.89978L1.7775 6.58053C2.38261 7.03436 2.9499 7.48819 3.55501 7.97984L5.33251 9.37916L6.95874 10.255L9.56827 9.71953L12.1778 8.69841C13.0476 8.35804 13.9175 8.01766 14.7873 7.67729L17.3969 6.69399C19.1365 6.01324 20.8762 5.37032 22.6159 4.72739C23.4857 4.38701 24.3556 4.08446 25.2254 3.78191C26.0953 3.47935 26.9651 3.13898 27.835 2.83643C26.9651 3.21462 26.1331 3.55499 25.2633 3.89536C24.3934 4.23574 23.5614 4.61393 22.6915 4.9543C20.9519 5.63505 19.25 6.35362 17.5103 7.03436L14.9008 8.05548C14.0309 8.39585 13.1611 8.73623 12.2913 9.0766L9.68173 10.0599L7.0722 11.0432L6.99656 11.081L6.92092 11.0054L5.18124 9.56825L3.44155 8.13112C2.87426 7.63947 2.30697 7.14782 1.73968 6.65617L0.869842 5.9376L0 5.21904Z" fill="white"/>
<path d="M7.14813 10.892L7.03467 12.8586L6.59277 10.6213L7.14813 10.892Z" fill="white"/>
</svg>

<svg width="28" height="13" fill="none" xmlns="http://www.w3.org/2000/svg"><path d="M19.137 0L0 5.181.303 6.43l6.731 6.43 20.612-8.926.151-1.097L19.137 0z" fill="#000"/><path d="M0 5.219l.908.68.87.682c.605.453 1.172.907 1.777 1.399l1.778 1.4 1.626.875 2.61-.535 2.609-1.022 2.61-1.02 2.609-.984c1.74-.68 3.48-1.324 5.219-1.967.87-.34 1.74-.643 2.61-.945.87-.303 1.74-.643 2.609-.946-.87.379-1.702.719-2.572 1.06-.87.34-1.702.718-2.572 1.058-1.74.681-3.441 1.4-5.18 2.08L14.9 8.055l-2.61 1.022-2.61.983-2.609.983-.075.038-.076-.076-1.74-1.437-1.74-1.437-1.7-1.475-.87-.718L0 5.219z" fill="#fff"/><path d="M7.148 10.892l-.113 1.967-.442-2.238.555.271z" fill="#fff"/></svg>
